components/Common/Svg/svgs/greatDesign.svg

<svg
  width="90"
  height="90"
  viewBox="0 0 90 90"
  fill="none"
  xmlns="http://www.w3.org/2000/svg"
>
  <circle
    opacity="0.5"
    cx="45"
    cy="45"
    r="45"
    fill="#FFE603"
  ></circle>
  <g clip-path="url(#clip0)">
    <path
      d="M46.1701 33.8847C45.6925 32.9259 44.3142 32.9166 43.8321 33.8847L34.6915 52.253C34.4841 52.6696 34.5142 53.165 34.7704 53.5536L39.7778 61.1483V65.9799C39.7778 66.701 40.3625 67.2857 41.0837 67.2857H48.9185C49.6396 67.2857 50.2243 66.701 50.2243 65.9799V61.1483L55.2318 53.5536C55.488 53.165 55.518 52.6696 55.3106 52.253L46.1701 33.8847ZM47.6127 64.674H42.3895V62.0624H47.6127V64.674ZM48.2154 59.4508H41.7868L37.3645 52.7435L43.6953 40.0215V52.8348C43.6953 53.5559 44.2799 54.1406 45.0011 54.1406C45.7222 54.1406 46.3069 53.5559 46.3069 52.8348V40.0215L52.6378 52.7435L48.2154 59.4508Z"
      fill="#171717"
    ></path>
    <path
      d="M63.3689 22.7142C61.6665 22.7142 60.2151 23.806 59.676 25.3258H48.918V24.02C48.918 23.2989 48.3333 22.7142 47.6122 22.7142H42.389C41.6678 22.7142 41.0831 23.2989 41.0831 24.02V25.3258H30.3251C29.786 23.806 28.3346 22.7142 26.6323 22.7142C24.4722 22.7142 22.7148 24.4716 22.7148 26.6316C22.7148 28.7917 24.4722 30.5491 26.6323 30.5491C28.3346 30.5491 29.786 29.4564 30.3251 27.9366H35.2099C29.1252 31.431 25.3265 37.8865 25.3265 44.9129C25.3265 45.634 25.9111 46.2187 26.6323 46.2187C27.3534 46.2187 27.9381 45.634 27.9381 44.9129C27.9381 37.0342 33.492 30.1817 41.0831 28.3917V29.2433C41.0831 29.9644 41.6678 30.5491 42.389 30.5491H47.6122C48.3333 30.5491 48.918 29.9644 48.918 29.2433V28.3916C56.5091 30.1817 62.0631 37.0342 62.0631 44.9129C62.0631 45.634 62.6477 46.2187 63.3689 46.2187C64.09 46.2187 64.6747 45.634 64.6747 44.9129C64.6747 37.8955 60.8835 31.4362 54.7912 27.9374H59.676C60.2151 29.4573 61.6665 30.5491 63.3689 30.5491C65.5289 30.5491 67.2863 28.7917 67.2863 26.6316C67.2863 24.4716 65.5289 22.7142 63.3689 22.7142ZM26.6323 27.9374C25.9122 27.9374 25.3265 27.3517 25.3265 26.6316C25.3265 25.9116 25.9122 25.3258 26.6323 25.3258C27.3523 25.3258 27.9381 25.9116 27.9381 26.6316C27.9381 27.3517 27.3523 27.9374 26.6323 27.9374ZM46.3064 27.9374H43.6948V25.3258H46.3064V27.9374ZM63.3689 27.9374C62.6488 27.9374 62.0631 27.3517 62.0631 26.6316C62.0631 25.9116 62.6488 25.3258 63.3689 25.3258C64.0889 25.3258 64.6747 25.9116 64.6747 26.6316C64.6747 27.3517 64.0889 27.9374 63.3689 27.9374Z"
      fill="#171717"
    ></path>
  </g>
  <defs>
    <clipPath id="clip0">
      <rect
        width="44.5714"
        height="44.5714"
        fill="white"
        transform="translate(22.7148 22.7142)"
      ></rect>
    </clipPath>
  </defs>
</svg>

<svg width="90" height="90" viewBox="0 0 90 90" fill="none" xmlns="http://www.w3.org/2000/svg"><circle opacity=".5" cx="45" cy="45" r="45" fill="#FFE603"/><g clip-path="url(#a)" fill="#171717"><path d="M46.17 33.885c-.477-.96-1.856-.968-2.338 0l-9.14 18.368c-.208.417-.178.912.078 1.3l5.008 7.595v4.832c0 .721.584 1.306 1.306 1.306h7.834c.722 0 1.306-.585 1.306-1.306v-4.832l5.008-7.594c.256-.389.286-.884.079-1.301l-9.14-18.368Zm1.443 30.789h-5.224v-2.612h5.224v2.612Zm.602-5.223h-6.428l-4.422-6.708 6.33-12.721v12.813a1.306 1.306 0 0 0 2.612 0V40.022l6.33 12.721-4.422 6.708Z"/><path d="M63.369 22.714a3.924 3.924 0 0 0-3.693 2.612H48.918V24.02c0-.721-.585-1.306-1.306-1.306H42.39c-.721 0-1.306.585-1.306 1.306v1.306H30.325a3.924 3.924 0 0 0-3.693-2.612 3.922 3.922 0 0 0-3.917 3.918 3.922 3.922 0 0 0 3.917 3.917 3.925 3.925 0 0 0 3.693-2.612h4.885c-6.085 3.494-9.884 9.95-9.884 16.976a1.306 1.306 0 0 0 2.612 0c0-7.879 5.554-14.731 13.145-16.521v.851c0 .721.585 1.306 1.306 1.306h5.223c.721 0 1.306-.585 1.306-1.306v-.851c7.591 1.79 13.145 8.642 13.145 16.52a1.306 1.306 0 0 0 2.612 0c0-7.017-3.791-13.476-9.884-16.975h4.885a3.924 3.924 0 0 0 3.693 2.612 3.922 3.922 0 0 0 3.917-3.917 3.922 3.922 0 0 0-3.917-3.918Zm-36.737 5.223c-.72 0-1.306-.585-1.306-1.305s.586-1.306 1.306-1.306c.72 0 1.306.586 1.306 1.306 0 .72-.586 1.305-1.306 1.305Zm19.674 0h-2.611v-2.611h2.611v2.611Zm17.063 0c-.72 0-1.306-.585-1.306-1.305s.586-1.306 1.306-1.306c.72 0 1.306.586 1.306 1.306 0 .72-.586 1.305-1.306 1.305Z"/></g><defs><clipPath id="a"><path fill="#fff" transform="translate(22.715 22.714)" d="M0 0h44.571v44.571H0z"/></clipPath></defs></svg>
